Yaru++/mimetypes/16/application-msword.svg

<svg height="16" width="16" xmlns="http://www.w3.org/2000/svg">
  <g fill="#808080">
    <path d="m8.6295169.1448247c-2.7090409.4824567-5.4196759 1.1225575-8.1287169 1.5961701 0 4.12097-.0018 8.2437172 0 12.3665012 2.694902.471836 5.391485 1.101241 8.0810873 1.592504h.8071634v-15.5551753zm-1.0478669 5.0384503-1.248075 5.239068-1.024422-.08088c-.235049-1.1698393-.508827-2.332649-.719116-3.5077797-.20674 1.1415685-.475581 2.2725924-.71238 3.4070927-.339288-.0189-.680145-.03893-1.021202-.06198-.293329-1.5550867-.638056-3.0995528-.911966-4.6581922.302173-.015118.606161-.026457.908341-.037795.182022 1.1256944.388702 2.246022.547748 3.3734928.249185-1.1557417.503808-2.3114834.751212-3.4671873.335773-.018898.671463-.034016 1.007221-.051402.235049 1.1928567.475257 2.3837102.729729 3.5712377.199672-1.226381.420638-2.449096.634465-3.6737385.353424-.011339.706813-.030236 1.058476-.052913z"/>
    <path d="m9.944592 2.3669979h5.555414v11.1108281h-5.555414v-1.111067h4.444331v-.555553h-4.444331v-1.111068h4.444331v-.555552h-4.444331v-1.1110683h4.444331v-.555553h-4.444331v-1.1110677h4.444331v-.5555527h-4.444331v-1.1091402h4.444331v-.5574803h-4.444331v-1.1111055h4.444331v-.5555149h-4.444331z"/>
  </g>
</svg>

<svg xmlns="http://www.w3.org/2000/svg" width="16" height="16" version="1.1">
 <path d="M 8.6295169,0.1448247 C 5.920476,0.6272814 3.209841,1.2673822 0.5008,1.7409948 c 0,4.12097 -0.0018,8.2437172 0,12.3665012 C 3.195702,14.579332 5.892285,15.208737 8.5818873,15.7 H 9.3890507 V 0.1448247 Z M 7.58165,5.183275 6.333575,10.422343 5.309153,10.341463 C 5.074104,9.1716237 4.800326,8.008814 4.590037,6.8336833 4.383297,7.9752518 4.114456,9.1062757 3.877657,10.240776 3.538369,10.221876 3.197512,10.201846 2.856455,10.178796 2.563126,8.6237093 2.218399,7.0792432 1.944489,5.5206038 2.246662,5.5054858 2.55065,5.4941468 2.85283,5.4828088 3.034852,6.6085032 3.241532,7.7288308 3.400578,8.8563016 3.649763,7.7005599 3.904386,6.5448182 4.15179,5.3891143 4.487563,5.3702163 4.823253,5.3550983 5.159011,5.3377123 5.39406,6.530569 5.634268,7.7214225 5.88874,8.90895 6.088412,7.682569 6.309378,6.459854 6.523205,5.2352115 6.876629,5.2238725 7.230018,5.2049755 7.581681,5.1822985 Z" style="fill:#808080"/>
 <path style="fill:#808080" d="m 9.944592,2.3669979 h 5.555414 V 13.477826 H 9.944592 v -1.111067 h 4.444331 V 11.811206 H 9.944592 v -1.111068 h 4.444331 V 10.144586 H 9.944592 V 9.0335177 h 4.444331 V 8.4779647 H 9.944592 V 7.366897 h 4.444331 V 6.8113443 H 9.944592 V 5.7022041 h 4.444331 V 5.1447238 H 9.944592 V 4.0336183 h 4.444331 V 3.4781034 H 9.944592 Z"/>
</svg>
